evolvere-2-blue-mono/apps/16/distributor-logo-xubuntu.svg

<?xml version="1.0" encoding="UTF-8"?>
<svg width="16" height="16" version="1.1" xmlns="http://www.w3.org/2000/svg" xmlns:cc="http://creativecommons.org/ns#" xmlns:dc="http://purl.org/dc/elements/1.1/" xmlns:rdf="http://www.w3.org/1999/02/22-rdf-syntax-ns#">
	<defs>
		<style id="current-color-scheme" type="text/css">.ColorScheme-Text {color:#090d11;}.ColorScheme-Background{color:#ffffff;}</style>
	</defs>
	<metadata>
		<rdf:RDF>
			<cc:Work rdf:about="">
				<dc:format>image/svg+xml</dc:format>
				<dc:type rdf:resource="http://purl.org/dc/dcmitype/StillImage"/>
			</cc:Work>
		</rdf:RDF>
	</metadata>
	<path class="ColorScheme-Text" d="m8 1c-3.8661 0-7 3.1339-7 7s3.1339 7 7 7 7-3.1339 7-7-3.1339-7-7-7zm1.1875 2.2188 1.3438 0.15625-0.46875 2.7188-0.96875-0.0625zm2.4062 0.625 0.90625 0.90625-1 2.1875-0.84375-0.40625zm-4.5 0.40625 0.96875 2.5625 3 0.6875 1.5 1.4688-0.96875 1.3125-3.9375 1.9062-2.8125-0.03125-1.3125-1.6562 0.625-3.0312-0.46875-2.0625 0.90625-0.4375 1.1875 2.4688 0.53125-0.34375-0.375-2.5625z" style="fill-opacity:.75;fill:currentColor"/>
	<path class="ColorScheme-Background" d="m8-0.1875c-4.5146 0-8.1875 3.6729-8.1875 8.1875s3.6729 8.1875 8.1875 8.1875 8.2188-3.6729 8.2188-8.1875-3.7042-8.1875-8.2188-8.1875zm0 1.1875c3.8661 0 7 3.1339 7 7s-3.1339 7-7 7-7-3.1339-7-7 3.1339-7 7-7zm1.1875 2.2188-0.09375 2.8125 0.96875 0.0625 0.46875-2.7188zm2.4062 0.625-0.9375 2.6875 0.84375 0.40625 1-2.1875zm-4.5 0.40625-1.1562 0.28125 0.375 2.5625-0.53125 0.34375-1.1875-2.4688-0.90625 0.4375 0.46875 2.0625-0.625 3.0312 1.3125 1.6562 2.8125 0.03125 3.9375-1.9062 0.96875-1.3125-1.5-1.4688-3-0.6875z" style="fill-opacity:.5;fill:currentColor"/>
</svg>

<?xml version="1.0" encoding="UTF-8" standalone="no"?>
<!-- Created with Inkscape (http://www.inkscape.org/) -->

<svg
   xmlns:dc="http://purl.org/dc/elements/1.1/"
   xmlns:cc="http://creativecommons.org/ns#"
   xmlns:rdf="http://www.w3.org/1999/02/22-rdf-syntax-ns#"
   xmlns:svg="http://www.w3.org/2000/svg"
   xmlns="http://www.w3.org/2000/svg"
   xmlns:sodipodi="http://sodipodi.sourceforge.net/DTD/sodipodi-0.dtd"
   xmlns:inkscape="http://www.inkscape.org/namespaces/inkscape"
   sodipodi:docname="xubuntu-logo-menu.svg"
   inkscape:version="0.48.3.1 r9886"
   version="1.1"
   id="svg13094"
   height="16"
   width="16">
  <sodipodi:namedview
     id="base"
     pagecolor="#ffffff"
     bordercolor="#666666"
     borderopacity="1.0"
     inkscape:pageopacity="0.0"
     inkscape:pageshadow="2"
     inkscape:zoom="23.427508"
     inkscape:cx="8.0577899"
     inkscape:cy="11.889748"
     inkscape:document-units="px"
     inkscape:current-layer="layer1"
     showgrid="true"
     inkscape:snap-bbox="true"
     inkscape:bbox-paths="true"
     inkscape:bbox-nodes="true"
     inkscape:snap-bbox-edge-midpoints="true"
     inkscape:snap-bbox-midpoints="true"
     inkscape:object-paths="true"
     inkscape:snap-intersection-paths="true"
     inkscape:object-nodes="true"
     inkscape:snap-smooth-nodes="true"
     inkscape:snap-midpoints="true"
     inkscape:snap-object-midpoints="true"
     inkscape:snap-center="true"
     showguides="false"
     inkscape:guide-bbox="true"
     inkscape:window-width="1920"
     inkscape:window-height="1033"
     inkscape:window-x="-10"
     inkscape:window-y="25"
     inkscape:window-maximized="1"
     inkscape:snap-global="false"
     fit-margin-top="0"
     fit-margin-left="0"
     fit-margin-right="0"
     fit-margin-bottom="0"
     showborder="true"
     inkscape:showpageshadow="false">
    <sodipodi:guide
       orientation="0,1"
       position="7904.3893,1688.6364"
       id="guide16149" />
    <sodipodi:guide
       orientation="0,1"
       position="7677.2464,1639.6277"
       id="guide16151" />
    <sodipodi:guide
       orientation="0,1"
       position="7742.9606,1664.132"
       id="guide16153" />
    <sodipodi:guide
       orientation="0,1"
       position="7736.5321,1583.9848"
       id="guide17725" />
    <sodipodi:guide
       orientation="1,0"
       position="8234.0303,1192.115"
       id="guide9456" />
    <sodipodi:guide
       orientation="0,1"
       position="8058.2804,1557.1639"
       id="guide9458" />
    <sodipodi:guide
       orientation="0,1"
       position="7829.5106,1502.2585"
       id="guide9468" />
    <sodipodi:guide
       orientation="0,1"
       position="7854.0304,1523.6285"
       id="guide9470" />
    <sodipodi:guide
       orientation="1,0"
       position="7722.0304,1237.629"
       id="guide11159" />
    <sodipodi:guide
       orientation="1,0"
       position="8035.0616,1501.6635"
       id="guide13980" />
    <sodipodi:guide
       id="guide3972"
       position="6181.0305,126.62899"
       orientation="0,1" />
    <sodipodi:guide
       id="guide3974"
       position="6361.0305,-1.3710498"
       orientation="1,0" />
    <sodipodi:guide
       id="guide3976"
       position="6055.0305,-236.37095"
       orientation="0,1" />
    <sodipodi:guide
       id="guide3978"
       position="6028.0305,-95.37105"
       orientation="1,0" />
    <sodipodi:guide
       id="guide4287"
       position="1377.8013,1369.629"
       orientation="1,0" />
    <sodipodi:guide
       id="guide4289"
       position="1377.8013,1369.629"
       orientation="0,1" />
    <inkscape:grid
       type="xygrid"
       id="grid3918"
       empspacing="5"
       visible="true"
       enabled="true"
       snapvisiblegridlinesonly="true"
       originx="0.00017297285px"
       originy="71.999982px" />
  </sodipodi:namedview>
  <defs
     id="defs13096" />
  <metadata
     id="metadata13099">
    <rdf:RDF>
      <cc:Work
         rdf:about="">
        <dc:format>image/svg+xml</dc:format>
        <dc:type
           rdf:resource="http://purl.org/dc/dcmitype/StillImage" />
        <dc:title />
      </cc:Work>
    </rdf:RDF>
  </metadata>
  <g
     inkscape:label="Camada 1"
     inkscape:groupmode="layer"
     id="layer1"
     transform="translate(9368.675,-1544.5613)">
    <path
       inkscape:connector-curvature="0"
       style="color:#000000;fill:#27303a;fill-opacity:0.75328081999999996;fill-rule:nonzero;stroke:none;stroke-width:0.07727949;marker:none;visibility:visible;display:inline;overflow:visible;enable-background:accumulate"
       d="m -9360.675,1545.5613 c -3.8661,0 -7,3.1339 -7,7 0,3.8661 3.1339,7 7,7 3.8661,0 7,-3.1339 7,-7 0,-3.8661 -3.1339,-7 -7,-7 z m 1.1875,2.2188 1.3438,0.1562 -0.4688,2.7188 -0.9687,-0.062 0.094,-2.8125 z m 2.4063,0.625 0.9062,0.9062 -1,2.1875 -0.8437,-0.4062 0.9375,-2.6875 z m -4.5,0.4062 0.9687,2.5625 3,0.6875 1.5,1.4688 -0.9687,1.3125 -3.9375,1.9062 -2.8125,-0.031 -1.3125,-1.6563 0.625,-3.0312 -0.4688,-2.0625 0.9063,-0.4375 1.1875,2.4687 0.5312,-0.3437 -0.375,-2.5625 1.1563,-0.2813 z"
       id="path3003" />
    <path
       style="font-size:medium;font-style:normal;font-variant:normal;font-weight:normal;font-stretch:normal;text-indent:0;text-align:start;text-decoration:none;line-height:normal;letter-spacing:normal;word-spacing:normal;text-transform:none;direction:ltr;block-progression:tb;writing-mode:lr-tb;text-anchor:start;baseline-shift:baseline;color:#000000;fill:#f1f3f5;fill-opacity:0.90288714000000003;fill-rule:nonzero;stroke:none;stroke-width:2;marker:none;visibility:visible;display:inline;overflow:visible;enable-background:accumulate;font-family:Sans;-inkscape-font-specification:Sans"
       d="m 8,-0.1875 c -4.5146,0 -8.1875,3.6729 -8.1875,8.1875 0,4.5146 3.6729,8.1875 8.1875,8.1875 4.5146,0 8.21875,-3.6729 8.21875,-8.1875 C 16.21875,3.4854 12.5146,-0.1875 8,-0.1875 z M 8,1 c 3.8661,0 7,3.1339 7,7 0,3.8661 -3.1339,7 -7,7 C 4.1339,15 1,11.8661 1,8 1,4.1339 4.1339,1 8,1 z M 9.1875,3.21875 9.09375,6.03125 10.0625,6.09375 10.53125,3.375 z m 2.40625,0.625 -0.9375,2.6875 L 11.5,6.9375 12.5,4.75 z M 7.09375,4.25 5.9375,4.53125 6.3125,7.09375 5.78125,7.4375 4.59375,4.96875 3.6875,5.40625 4.15625,7.46875 3.53125,10.5 l 1.3125,1.65625 2.8125,0.03125 3.9375,-1.90625 0.96875,-1.3125 -1.5,-1.46875 -3,-0.6875 z"
       transform="translate(-9368.675,1544.5613)"
       id="path3354"
       inkscape:connector-curvature="0"
       sodipodi:nodetypes="ssssssssssccccccccccccccccccccccccc" />
  </g>
</svg>
